svg/300/outlined/format_h2-fill.svg

<svg xmlns="http://www.w3.org/2000/svg" width="48" height="48" viewBox="0 -960 960 960"><path d="M140.001-290.001v-379.998h45.384v167.307h194.616v-167.307h45.384v379.998h-45.384v-167.307H185.385v167.307h-45.384Zm394.614 0V-445q0-23.5 17.096-40.596 17.096-17.096 40.596-17.096h169.999q5.385 0 8.847-3.462 3.462-3.461 3.462-8.846v-97.307q0-5.385-3.462-8.847-3.462-3.462-8.847-3.462H534.615v-45.383h227.691q23.75 0 40.721 17.096 16.972 17.096 16.972 40.596V-515q0 23.5-17.097 40.596-17.096 17.096-40.596 17.096H592.307q-5.385 0-8.847 3.462-3.461 3.461-3.461 8.846v109.616h240v45.383H534.615Z"/></svg>

<svg xmlns="http://www.w3.org/2000/svg" width="48" height="48" viewBox="0 -960 960 960"><path d="M140-290v-380h45.39v167.31H380V-670h45.39v380H380v-167.31H185.39V-290H140Zm394.61 0v-155q0-23.5 17.1-40.6 17.1-17.09 40.6-17.09h170q5.38 0 8.84-3.46 3.46-3.47 3.46-8.85v-97.31q0-5.38-3.46-8.84-3.46-3.47-8.84-3.47h-227.7V-670h227.7q23.75 0 40.72 17.1Q820-635.81 820-612.31V-515q0 23.5-17.1 40.6-17.09 17.09-40.59 17.09h-170q-5.39 0-8.85 3.46Q580-450.38 580-445v109.62h240V-290H534.61Z"/></svg>
